src/icons/developer-spotlight.svg

<svg xmlns="http://www.w3.org/2000/svg" width="64" height="64" viewBox="0 0 64 64"><path d="M32.022 32.9121C33.9009 32.9121 35.7376 32.3549 37.2999 31.3111C38.8622 30.2672 40.0798 28.7835 40.7988 27.0476C41.5179 25.3117 41.706 23.4016 41.3394 21.5588C40.9729 19.7159 40.0681 18.0232 38.7395 16.6946C37.4109 15.366 35.7182 14.4612 33.8753 14.0947C32.0325 13.7281 30.1224 13.9162 28.3865 14.6353C26.6506 15.3543 25.1669 16.5719 24.123 18.1342C23.0792 19.6965 22.522 21.5332 22.522 23.4121C22.5241 25.931 23.5257 28.3462 25.3068 30.1273C27.0879 31.9084 29.5031 32.91 32.022 32.9121ZM32.022 17.9171C33.1098 17.9171 34.1732 18.2397 35.0776 18.844C35.9821 19.4484 36.687 20.3074 37.1033 21.3124C37.5196 22.3173 37.6285 23.4232 37.4163 24.4901C37.2041 25.557 36.6803 26.537 35.9111 27.3062C35.1419 28.0754 34.1619 28.5992 33.095 28.8114C32.0281 29.0237 30.9222 28.9147 29.9172 28.4985C28.9122 28.0822 28.0533 27.3772 27.4489 26.4728C26.8446 25.5683 26.522 24.5049 26.522 23.4171C26.522 21.9584 27.1014 20.5595 28.1329 19.528C29.1644 18.4966 30.5633 17.9171 32.022 17.9171Z"/><path d="M12.052 37.0571C13.4365 37.0571 14.7898 36.6466 15.941 35.8774C17.0921 35.1082 17.9893 34.015 18.5191 32.7359C19.049 31.4568 19.1876 30.0493 18.9175 28.6915C18.6474 27.3336 17.9807 26.0863 17.0017 25.1074C16.0228 24.1284 14.7755 23.4617 13.4176 23.1916C12.0598 22.9215 10.6523 23.0601 9.3732 23.59C8.09412 24.1198 7.00087 25.017 6.2317 26.1681C5.46253 27.3193 5.05199 28.6726 5.05199 30.0571C5.05384 31.9131 5.79193 33.6925 7.10429 35.0048C8.41664 36.3172 10.196 37.0553 12.052 37.0571ZM12.052 27.0571C12.6453 27.0571 13.2254 27.2331 13.7187 27.5627C14.212 27.8923 14.5966 28.3609 14.8236 28.9091C15.0507 29.4572 15.1101 30.0604 14.9943 30.6424C14.8786 31.2243 14.5929 31.7589 14.1733 32.1784C13.7538 32.598 13.2192 32.8837 12.6373 32.9995C12.0553 33.1152 11.4521 33.0558 10.9039 32.8288C10.3558 32.6017 9.88722 32.2172 9.55758 31.7238C9.22793 31.2305 9.05199 30.6505 9.05199 30.0571C9.05278 29.262 9.3692 28.4997 9.93173 27.9377C10.4943 27.3758 11.2569 27.0601 12.052 27.0601V27.0571Z"/><path d="M54.015 38.1001H49.982C48.4967 38.0988 47.0302 38.4317 45.691 39.0741C44.3822 37.5189 42.7492 36.2686 40.9064 35.4108C39.0637 34.5529 37.0556 34.1084 35.023 34.1081H28.977C26.948 34.1085 24.9435 34.5516 23.1033 35.4066C21.2632 36.2615 19.6318 37.5077 18.323 39.0581C16.9884 38.4258 15.5298 38.0985 14.053 38.1001H10.021C7.37431 38.103 4.83683 39.1556 2.96515 41.0269C1.09348 42.8982 0.0404281 45.4354 0.0369873 48.0821L2.03699 50.0821H62L64 48.0821C63.9968 45.4352 62.9437 42.8976 61.0718 41.0262C59.1998 39.1548 56.6619 38.1025 54.015 38.1001ZM10.021 42.1001H14.053C14.7774 42.1037 15.4951 42.2393 16.171 42.5001C15.6745 43.6429 15.3344 44.8474 15.16 46.0811H4.38099C4.79602 44.9171 5.56069 43.9098 6.57032 43.1971C7.57995 42.4845 8.78518 42.1013 10.021 42.1001ZM19.201 46.0831C19.6652 43.8325 20.8909 41.8106 22.6715 40.358C24.4522 38.9054 26.679 38.1109 28.977 38.1081H35.023C37.321 38.1106 39.548 38.9049 41.3288 40.3573C43.1096 41.8098 44.3355 43.8315 44.8 46.0821L19.201 46.0831ZM48.84 46.0831C48.6666 44.853 48.3283 43.6518 47.834 42.5121C48.5184 42.2432 49.2467 42.1035 49.982 42.1001H54.015C55.2509 42.1014 56.4562 42.4848 57.4658 43.1979C58.4753 43.9109 59.2396 44.9187 59.654 46.0831H48.84Z"/><path d="M52.014 37.0571C53.3985 37.0571 54.7518 36.6466 55.903 35.8774C57.0541 35.1082 57.9513 34.015 58.4811 32.7359C59.011 31.4568 59.1496 30.0493 58.8795 28.6915C58.6094 27.3336 57.9427 26.0863 56.9637 25.1074C55.9848 24.1284 54.7375 23.4617 53.3796 23.1916C52.0218 22.9215 50.6143 23.0601 49.3352 23.59C48.0561 24.1198 46.9629 25.017 46.1937 26.1681C45.4245 27.3193 45.014 28.6726 45.014 30.0571C45.0158 31.9131 45.7539 33.6925 47.0663 35.0048C48.3786 36.3172 50.158 37.0553 52.014 37.0571ZM52.014 27.0571C52.6073 27.0571 53.1874 27.2331 53.6807 27.5627C54.174 27.8923 54.5586 28.3609 54.7856 28.9091C55.0127 29.4572 55.0721 30.0604 54.9563 30.6424C54.8406 31.2243 54.5549 31.7589 54.1353 32.1784C53.7158 32.598 53.1812 32.8837 52.5993 32.9995C52.0173 33.1152 51.4141 33.0558 50.8659 32.8288C50.3178 32.6017 49.8492 32.2172 49.5196 31.7238C49.1899 31.2305 49.014 30.6505 49.014 30.0571C49.0148 29.262 49.3312 28.4997 49.8937 27.9377C50.4562 27.3758 51.2189 27.0601 52.014 27.0601V27.0571Z"/></svg>

<svg xmlns="http://www.w3.org/2000/svg" width="64" height="64" viewBox="0 0 64 64"><path d="M32.022 32.912a9.5 9.5 0 1 0-9.5-9.5 9.51 9.51 0 0 0 9.5 9.5m0-14.995a5.5 5.5 0 1 1 0 11 5.5 5.5 0 0 1 0-11m-19.97 19.14a7 7 0 1 0-7-7 7.007 7.007 0 0 0 7 7m0-10a3 3 0 1 1-2.12.88 3 3 0 0 1 2.12-.877z"/><path d="M54.015 38.1h-4.033a9.9 9.9 0 0 0-4.291.974 13.95 13.95 0 0 0-10.668-4.966h-6.046a13.95 13.95 0 0 0-10.654 4.95 9.95 9.95 0 0 0-4.27-.958h-4.032a9.995 9.995 0 0 0-9.984 9.982l2 2H62l2-2a9.994 9.994 0 0 0-9.985-9.982m-43.994 4h4.032c.724.004 1.442.14 2.118.4a14 14 0 0 0-1.011 3.581H4.381a5.99 5.99 0 0 1 5.64-3.98m9.18 3.983a9.994 9.994 0 0 1 9.776-7.975h6.046a9.994 9.994 0 0 1 9.777 7.974zm29.639 0a13.8 13.8 0 0 0-1.006-3.57 6 6 0 0 1 2.148-.413h4.033a5.99 5.99 0 0 1 5.639 3.983z"/><path d="M52.014 37.057a7 7 0 1 0-7-7 7.006 7.006 0 0 0 7 7m0-10a3 3 0 1 1-2.12.88 3 3 0 0 1 2.12-.877z"/></svg>
